elementary-xfce/mimes/24/gnome-mime-application-pdf.svg

<?xml version="1.0" encoding="UTF-8" standalone="no"?>
<!-- Created with Inkscape (http://www.inkscape.org/) -->

<svg
   xmlns:dc="http://purl.org/dc/elements/1.1/"
   xmlns:cc="http://creativecommons.org/ns#"
   xmlns:rdf="http://www.w3.org/1999/02/22-rdf-syntax-ns#"
   xmlns:svg="http://www.w3.org/2000/svg"
   xmlns="http://www.w3.org/2000/svg"
   xmlns:xlink="http://www.w3.org/1999/xlink"
   xmlns:sodipodi="http://sodipodi.sourceforge.net/DTD/sodipodi-0.dtd"
   xmlns:inkscape="http://www.inkscape.org/namespaces/inkscape"
   version="1.0"
   width="24"
   height="24"
   id="svg3620"
   sodipodi:version="0.32"
   inkscape:version="0.48.4 r9939"
   sodipodi:docname="gnome-mime-application-pdf.svg"
   inkscape:output_extension="org.inkscape.output.svg.inkscape">
  <metadata
     id="metadata52">
    <rdf:RDF>
      <cc:Work
         rdf:about="">
        <dc:format>image/svg+xml</dc:format>
        <dc:type
           rdf:resource="http://purl.org/dc/dcmitype/StillImage" />
      </cc:Work>
    </rdf:RDF>
  </metadata>
  <sodipodi:namedview
     inkscape:window-height="706"
     inkscape:window-width="1088"
     inkscape:pageshadow="2"
     inkscape:pageopacity="0.0"
     guidetolerance="10.0"
     gridtolerance="10.0"
     objecttolerance="10.0"
     borderopacity="1.0"
     bordercolor="#666666"
     pagecolor="#ffffff"
     id="base"
     showgrid="false"
     inkscape:zoom="14.672466"
     inkscape:cx="12"
     inkscape:cy="13.927711"
     inkscape:window-x="399"
     inkscape:window-y="54"
     inkscape:current-layer="svg3620"
     inkscape:window-maximized="0" />
  <defs
     id="defs3622">
    <linearGradient
       id="linearGradient5048">
      <stop
         id="stop5050"
         style="stop-color:#000000;stop-opacity:0"
         offset="0" />
      <stop
         id="stop5056"
         style="stop-color:#000000;stop-opacity:1"
         offset="0.5" />
      <stop
         id="stop5052"
         style="stop-color:#000000;stop-opacity:0"
         offset="1" />
    </linearGradient>
    <linearGradient
       id="linearGradient5060">
      <stop
         id="stop5062"
         style="stop-color:#000000;stop-opacity:1"
         offset="0" />
      <stop
         id="stop5064"
         style="stop-color:#000000;stop-opacity:0"
         offset="1" />
    </linearGradient>
    <linearGradient
       id="linearGradient3104">
      <stop
         id="stop3106"
         style="stop-color:#791235;stop-opacity:1"
         offset="0" />
      <stop
         id="stop3108"
         style="stop-color:#dd3b27;stop-opacity:1"
         offset="1" />
    </linearGradient>
    <linearGradient
       id="linearGradient3681">
      <stop
         id="stop3683"
         style="stop-color:#f89b7e;stop-opacity:1"
         offset="0" />
      <stop
         id="stop3685"
         style="stop-color:#e35d4f;stop-opacity:1"
         offset="0.25" />
      <stop
         id="stop3687"
         style="stop-color:#c6262e;stop-opacity:1"
         offset="0.75235957" />
      <stop
         id="stop3689"
         style="stop-color:#690b2c;stop-opacity:1"
         offset="1" />
    </linearGradient>
    <linearGradient
       id="linearGradient4246">
      <stop
         id="stop4248"
         style="stop-color:#ffffff;stop-opacity:1"
         offset="0" />
      <stop
         id="stop4250"
         style="stop-color:#dcdcdc;stop-opacity:1"
         offset="1" />
    </linearGradient>
    <linearGradient
       id="linearGradient3211">
      <stop
         id="stop3213"
         style="stop-color:#ffffff;stop-opacity:1"
         offset="0" />
      <stop
         id="stop3215"
         style="stop-color:#ffffff;stop-opacity:0"
         offset="1" />
    </linearGradient>
    <linearGradient
       id="linearGradient8589">
      <stop
         id="stop8591"
         style="stop-color:#fefefe;stop-opacity:1"
         offset="0" />
      <stop
         id="stop8593"
         style="stop-color:#cbcbcb;stop-opacity:1"
         offset="1" />
    </linearGradient>
    <linearGradient
       id="linearGradient4267">
      <stop
         id="stop4269"
         style="stop-color:#c4c4c4;stop-opacity:1"
         offset="0" />
      <stop
         id="stop4271"
         style="stop-color:#c4c4c4;stop-opacity:0"
         offset="1" />
    </linearGradient>
    <linearGradient
       inkscape:collect="always"
       xlink:href="#linearGradient4267"
       id="linearGradient2428"
       gradientUnits="userSpaceOnUse"
       gradientTransform="matrix(0.5155606,0,0,0.5130904,-0.8957459,0.1854491)"
       x1="35.349018"
       y1="5.3065128"
       x2="34.102982"
       y2="6.5436172" />
    <linearGradient
       inkscape:collect="always"
       xlink:href="#linearGradient8589"
       id="linearGradient2431"
       gradientUnits="userSpaceOnUse"
       gradientTransform="matrix(0.4778466,0,0,0.5524833,0.3722548,-7.61283e-2)"
       x1="32.892288"
       y1="8.0590115"
       x2="36.358372"
       y2="5.4565363" />
    <linearGradient
       inkscape:collect="always"
       xlink:href="#linearGradient3211"
       id="linearGradient2435"
       gradientUnits="userSpaceOnUse"
       gradientTransform="matrix(0.4545444,0,0,0.4651153,1.0909345,0.3372293)"
       x1="24"
       y1="1.9999999"
       x2="24"
       y2="46.01725" />
    <linearGradient
       inkscape:collect="always"
       xlink:href="#linearGradient4246"
       id="linearGradient2439"
       gradientUnits="userSpaceOnUse"
       gradientTransform="matrix(0.4210526,0,0,0.5526316,1.894737,-1.7631576)"
       x1="23.969797"
       y1="3.9810441"
       x2="23.969797"
       y2="44.024017" />
    <radialGradient
       inkscape:collect="always"
       xlink:href="#linearGradient3681"
       id="radialGradient2442"
       gradientUnits="userSpaceOnUse"
       gradientTransform="matrix(1.444031e-2,2.0653773,-3.052092,2.133905e-2,28.231755,-11.638481)"
       cx="8.1203003"
       cy="6.6278195"
       fx="8.1203003"
       fy="6.6278195"
       r="8.999999" />
    <linearGradient
       inkscape:collect="always"
       xlink:href="#linearGradient3104"
       id="linearGradient2444"
       gradientUnits="userSpaceOnUse"
       gradientTransform="matrix(0.3922135,0,0,0.4473607,29.199293,-1.2386997)"
       x1="-53.412315"
       y1="56.110264"
       x2="-51.786404"
       y2="2.9062471" />
    <radialGradient
       inkscape:collect="always"
       xlink:href="#linearGradient5060"
       id="radialGradient2447"
       gradientUnits="userSpaceOnUse"
       gradientTransform="matrix(1.204859e-2,0,0,8.23529e-3,13.238794,18.980568)"
       cx="605.71429"
       cy="486.64789"
       fx="605.71429"
       fy="486.64789"
       r="117.14286" />
    <radialGradient
       inkscape:collect="always"
       xlink:href="#linearGradient5060"
       id="radialGradient2450"
       gradientUnits="userSpaceOnUse"
       gradientTransform="matrix(-1.204859e-2,0,0,8.23529e-3,10.761206,18.980568)"
       cx="605.71429"
       cy="486.64789"
       fx="605.71429"
       fy="486.64789"
       r="117.14286" />
    <linearGradient
       inkscape:collect="always"
       xlink:href="#linearGradient5048"
       id="linearGradient2453"
       gradientUnits="userSpaceOnUse"
       gradientTransform="matrix(3.52071e-2,0,0,8.23529e-3,-0.724852,18.980551)"
       x1="302.85715"
       y1="366.64789"
       x2="302.85715"
       y2="609.50507" />
  </defs>
  <rect
     style="opacity:0.15;fill:url(#linearGradient2453);fill-opacity:1;fill-rule:nonzero;stroke:none;stroke-width:1;marker:none;visibility:visible;display:inline;overflow:visible"
     id="rect2879"
     y="21.999998"
     x="3.5000005"
     height="1.9999981"
     width="17" />
  <path
     style="opacity:0.15;fill:url(#radialGradient2450);fill-opacity:1;fill-rule:nonzero;stroke:none;stroke-width:1;marker:none;visibility:visible;display:inline;overflow:visible"
     id="path2881"
     d="M 3.5,22.000086 C 3.5,22.000086 3.5,23.999975 3.5,23.999975 C 2.8795275,24.00374 2,23.551901 2,22.999901 C 2,22.447902 2.6924,22.000086 3.5,22.000086 z" />
  <path
     style="opacity:0.15;fill:url(#radialGradient2447);fill-opacity:1;fill-rule:nonzero;stroke:none;stroke-width:1;marker:none;visibility:visible;display:inline;overflow:visible"
     id="path2883"
     d="M 20.5,22.000086 C 20.5,22.000086 20.5,23.999975 20.5,23.999975 C 21.120472,24.003775 22,23.551901 22,22.999901 C 22,22.447902 21.307599,22.000086 20.5,22.000086 L 20.5,22.000086 z" />
  <path
     style="fill:url(#radialGradient2442);fill-opacity:1;stroke:url(#linearGradient2444);stroke-width:0.99992162;stroke-linecap:butt;stroke-linejoin:round;stroke-miterlimit:4;stroke-opacity:1;stroke-dasharray:none;stroke-dashoffset:0;display:inline"
     id="path4160"
     d="M 3.4999617,0.49996097 20.5,0.5 c 0,0 3.9e-5,16.270881 3.9e-5,22.000039 -5.666693,0 -11.3333845,0 -17.0000773,0 0,-7.33336 0,-22.00007803 0,-22.00007803 z"
     inkscape:connector-curvature="0"
     sodipodi:nodetypes="cccccc" />
  <path
     style="fill:url(#linearGradient2439);fill-opacity:1;fill-rule:evenodd;stroke:none"
     id="path6711"
     d="M 13.602941,1 C 8.1493681,7.1511328 5.0362607,8.0161777 4,8.1119188 L 4,10.324855 C 4.7821694,10.181297 6.7443732,9.6832125 8.8382356,7.9593025 11.523142,5.7487769 14.735294,1 14.735294,1 13.854973,3.2698704 13.605244,11.649675 13.588235,22 L 20,22 c 0,-0.575145 0,-0.459511 0,-1.037791 C 18.956759,18.133888 18.276538,14.052967 17.764706,10.401163 17.462258,7.3842414 17.809835,1 17.809835,1 l -3.2135,0 z M 4,11.713663 4,14.170785 c 2.2640725,-1e-6 5.7426817,3.566302 7.426471,7.829215 l 1.411764,0 C 12.047065,18.124596 5.7273049,11.713663 4,11.713663 z"
     inkscape:connector-curvature="0"
     sodipodi:nodetypes="cccsccccccccccccc" />
  <path
     style="opacity:0.15;fill:#000000;fill-opacity:1;fill-rule:evenodd;stroke:none"
     id="path6713"
     d="M 18,1 C 15.249891,2.9729443 8.5705498,8.3323148 4,7.789725 l 0,4.387027 c 0,-1e-6 12.307693,2.300287 16,-2.5578599 L 20,1 c 0,0 -1.943996,0.044776 -2,0 z m 2,13.133829 C 18.53148,15.819909 16.728987,19.151025 15.464818,22 L 13.882353,21.98608 C 15.359019,17.980407 17.746801,14.045734 20,11.255817 l 0,2.878015 z"
     inkscape:connector-curvature="0"
     sodipodi:nodetypes="cccccccccccc" />
  <path
     style="opacity:0.4;fill:none;stroke:url(#linearGradient2435);stroke-width:0.99999988;stroke-linecap:butt;stroke-linejoin:miter;stroke-miterlimit:4;stroke-opacity:1;stroke-dasharray:none;stroke-dashoffset:0;display:inline"
     id="path2435"
     d="m 19.500001,1 c 0,5.2083053 0,15.291693 0,20.5 -5,0 -9.9999998,0 -15.000001,0 0,-6.66667 0,-13.3333343 0,-20.0000001 3.4372614,0 12.062738,0 15.5,0"
     inkscape:connector-curvature="0"
     sodipodi:nodetypes="ccccc" />
</svg>

<?xml version="1.0" encoding="UTF-8" standalone="no"?>
<!-- Created with Inkscape (http://www.inkscape.org/) -->

<svg
   xmlns:dc="http://purl.org/dc/elements/1.1/"
   xmlns:cc="http://creativecommons.org/ns#"
   xmlns:rdf="http://www.w3.org/1999/02/22-rdf-syntax-ns#"
   xmlns:svg="http://www.w3.org/2000/svg"
   xmlns="http://www.w3.org/2000/svg"
   xmlns:xlink="http://www.w3.org/1999/xlink"
   xmlns:sodipodi="http://sodipodi.sourceforge.net/DTD/sodipodi-0.dtd"
   xmlns:inkscape="http://www.inkscape.org/namespaces/inkscape"
   version="1.0"
   width="24"
   height="24"
   id="svg3620"
   sodipodi:version="0.32"
   inkscape:version="0.48.3.1 r9886"
   sodipodi:docname="application-pdf.svg"
   inkscape:output_extension="org.inkscape.output.svg.inkscape">
  <metadata
     id="metadata52">
    <rdf:RDF>
      <cc:Work
         rdf:about="">
        <dc:format>image/svg+xml</dc:format>
        <dc:type
           rdf:resource="http://purl.org/dc/dcmitype/StillImage" />
      </cc:Work>
    </rdf:RDF>
  </metadata>
  <sodipodi:namedview
     inkscape:window-height="706"
     inkscape:window-width="640"
     inkscape:pageshadow="2"
     inkscape:pageopacity="0.0"
     guidetolerance="10.0"
     gridtolerance="10.0"
     objecttolerance="10.0"
     borderopacity="1.0"
     bordercolor="#666666"
     pagecolor="#ffffff"
     id="base"
     showgrid="false"
     inkscape:zoom="20.75"
     inkscape:cx="12"
     inkscape:cy="12"
     inkscape:window-x="399"
     inkscape:window-y="54"
     inkscape:current-layer="svg3620" />
  <defs
     id="defs3622">
    <linearGradient
       id="linearGradient5048">
      <stop
         id="stop5050"
         style="stop-color:#000000;stop-opacity:0"
         offset="0" />
      <stop
         id="stop5056"
         style="stop-color:#000000;stop-opacity:1"
         offset="0.5" />
      <stop
         id="stop5052"
         style="stop-color:#000000;stop-opacity:0"
         offset="1" />
    </linearGradient>
    <linearGradient
       id="linearGradient5060">
      <stop
         id="stop5062"
         style="stop-color:#000000;stop-opacity:1"
         offset="0" />
      <stop
         id="stop5064"
         style="stop-color:#000000;stop-opacity:0"
         offset="1" />
    </linearGradient>
    <linearGradient
       id="linearGradient3104">
      <stop
         id="stop3106"
         style="stop-color:#791235;stop-opacity:1"
         offset="0" />
      <stop
         id="stop3108"
         style="stop-color:#dd3b27;stop-opacity:1"
         offset="1" />
    </linearGradient>
    <linearGradient
       id="linearGradient3681">
      <stop
         id="stop3683"
         style="stop-color:#f89b7e;stop-opacity:1"
         offset="0" />
      <stop
         id="stop3685"
         style="stop-color:#e35d4f;stop-opacity:1"
         offset="0.25" />
      <stop
         id="stop3687"
         style="stop-color:#c6262e;stop-opacity:1"
         offset="0.75235957" />
      <stop
         id="stop3689"
         style="stop-color:#690b2c;stop-opacity:1"
         offset="1" />
    </linearGradient>
    <linearGradient
       id="linearGradient4246">
      <stop
         id="stop4248"
         style="stop-color:#ffffff;stop-opacity:1"
         offset="0" />
      <stop
         id="stop4250"
         style="stop-color:#dcdcdc;stop-opacity:1"
         offset="1" />
    </linearGradient>
    <linearGradient
       id="linearGradient3211">
      <stop
         id="stop3213"
         style="stop-color:#ffffff;stop-opacity:1"
         offset="0" />
      <stop
         id="stop3215"
         style="stop-color:#ffffff;stop-opacity:0"
         offset="1" />
    </linearGradient>
    <linearGradient
       id="linearGradient8589">
      <stop
         id="stop8591"
         style="stop-color:#fefefe;stop-opacity:1"
         offset="0" />
      <stop
         id="stop8593"
         style="stop-color:#cbcbcb;stop-opacity:1"
         offset="1" />
    </linearGradient>
    <linearGradient
       id="linearGradient4267">
      <stop
         id="stop4269"
         style="stop-color:#c4c4c4;stop-opacity:1"
         offset="0" />
      <stop
         id="stop4271"
         style="stop-color:#c4c4c4;stop-opacity:0"
         offset="1" />
    </linearGradient>
    <linearGradient
       inkscape:collect="always"
       xlink:href="#linearGradient4267"
       id="linearGradient2428"
       gradientUnits="userSpaceOnUse"
       gradientTransform="matrix(0.5155606,0,0,0.5130904,-0.8957459,0.1854491)"
       x1="35.349018"
       y1="5.3065128"
       x2="34.102982"
       y2="6.5436172" />
    <linearGradient
       inkscape:collect="always"
       xlink:href="#linearGradient8589"
       id="linearGradient2431"
       gradientUnits="userSpaceOnUse"
       gradientTransform="matrix(0.4778466,0,0,0.5524833,0.3722548,-7.61283e-2)"
       x1="32.892288"
       y1="8.0590115"
       x2="36.358372"
       y2="5.4565363" />
    <linearGradient
       inkscape:collect="always"
       xlink:href="#linearGradient3211"
       id="linearGradient2435"
       gradientUnits="userSpaceOnUse"
       gradientTransform="matrix(0.4545444,0,0,0.4651153,1.0909345,0.3372293)"
       x1="24"
       y1="1.9999999"
       x2="24"
       y2="46.01725" />
    <linearGradient
       inkscape:collect="always"
       xlink:href="#linearGradient4246"
       id="linearGradient2439"
       gradientUnits="userSpaceOnUse"
       gradientTransform="matrix(0.4210526,0,0,0.5526316,1.894737,-1.7631576)"
       x1="23.969797"
       y1="3.9810441"
       x2="23.969797"
       y2="44.024017" />
    <radialGradient
       inkscape:collect="always"
       xlink:href="#linearGradient3681"
       id="radialGradient2442"
       gradientUnits="userSpaceOnUse"
       gradientTransform="matrix(1.444031e-2,2.0653773,-3.052092,2.133905e-2,28.231755,-11.638481)"
       cx="8.1203003"
       cy="6.6278195"
       fx="8.1203003"
       fy="6.6278195"
       r="8.999999" />
    <linearGradient
       inkscape:collect="always"
       xlink:href="#linearGradient3104"
       id="linearGradient2444"
       gradientUnits="userSpaceOnUse"
       gradientTransform="matrix(0.3922135,0,0,0.4473607,29.199293,-1.2386997)"
       x1="-53.412315"
       y1="56.110264"
       x2="-51.786404"
       y2="2.9062471" />
    <radialGradient
       inkscape:collect="always"
       xlink:href="#linearGradient5060"
       id="radialGradient2447"
       gradientUnits="userSpaceOnUse"
       gradientTransform="matrix(1.204859e-2,0,0,8.23529e-3,13.238794,18.980568)"
       cx="605.71429"
       cy="486.64789"
       fx="605.71429"
       fy="486.64789"
       r="117.14286" />
    <radialGradient
       inkscape:collect="always"
       xlink:href="#linearGradient5060"
       id="radialGradient2450"
       gradientUnits="userSpaceOnUse"
       gradientTransform="matrix(-1.204859e-2,0,0,8.23529e-3,10.761206,18.980568)"
       cx="605.71429"
       cy="486.64789"
       fx="605.71429"
       fy="486.64789"
       r="117.14286" />
    <linearGradient
       inkscape:collect="always"
       xlink:href="#linearGradient5048"
       id="linearGradient2453"
       gradientUnits="userSpaceOnUse"
       gradientTransform="matrix(3.52071e-2,0,0,8.23529e-3,-0.724852,18.980551)"
       x1="302.85715"
       y1="366.64789"
       x2="302.85715"
       y2="609.50507" />
  </defs>
  <rect
     style="opacity:0.15;fill:url(#linearGradient2453);fill-opacity:1;fill-rule:nonzero;stroke:none;stroke-width:1;marker:none;visibility:visible;display:inline;overflow:visible"
     id="rect2879"
     y="21.999998"
     x="3.5000005"
     height="1.9999981"
     width="17" />
  <path
     style="opacity:0.15;fill:url(#radialGradient2450);fill-opacity:1;fill-rule:nonzero;stroke:none;stroke-width:1;marker:none;visibility:visible;display:inline;overflow:visible"
     id="path2881"
     d="M 3.5,22.000086 C 3.5,22.000086 3.5,23.999975 3.5,23.999975 C 2.8795275,24.00374 2,23.551901 2,22.999901 C 2,22.447902 2.6924,22.000086 3.5,22.000086 z" />
  <path
     style="opacity:0.15;fill:url(#radialGradient2447);fill-opacity:1;fill-rule:nonzero;stroke:none;stroke-width:1;marker:none;visibility:visible;display:inline;overflow:visible"
     id="path2883"
     d="M 20.5,22.000086 C 20.5,22.000086 20.5,23.999975 20.5,23.999975 C 21.120472,24.003775 22,23.551901 22,22.999901 C 22,22.447902 21.307599,22.000086 20.5,22.000086 L 20.5,22.000086 z" />
  <path
     style="fill:url(#radialGradient2442);fill-opacity:1;stroke:url(#linearGradient2444);stroke-width:0.99992162;stroke-linecap:butt;stroke-linejoin:round;stroke-miterlimit:4;stroke-dasharray:none;stroke-dashoffset:0;stroke-opacity:1;display:inline"
     id="path4160"
     d="M 3.4999617,0.49996097 C 7.3955416,0.49996097 11.104417,0.49996097 15,0.49996097 C 15.683368,0.73725787 19.541325,3.628131 20.5,5.5 C 20.5,11.229157 20.500039,16.770881 20.500039,22.500039 C 14.833346,22.500039 9.1666545,22.500039 3.4999617,22.500039 C 3.4999617,15.166679 3.4999617,7.8333189 3.4999617,0.49996097 L 3.4999617,0.49996097 z" />
  <path
     style="fill:url(#linearGradient2439);fill-opacity:1;fill-rule:evenodd;stroke:none"
     id="path6711"
     d="M 13.602941,1 C 8.1493681,7.1511328 5.0362607,8.0161777 4,8.1119188 L 4,10.324855 C 4.7821694,10.181297 6.7443732,9.6832125 8.8382356,7.9593025 C 11.523142,5.7487769 14.735294,1.5494186 14.735294,1.5494186 C 13.854973,3.819289 13.605244,11.649675 13.588235,22 L 20,22 C 20,21.424855 20,21.540489 20,20.962209 C 18.956759,18.133888 18.276538,14.052967 17.764706,10.401163 C 17.462258,7.3842414 17.568838,5.2128348 17.809835,3.3962595 C 16.905673,2.5995437 15.164663,1.3514751 14.596335,1 L 13.60294,1 L 13.602941,1 z M 4,11.713663 L 4,14.170785 C 6.2640725,14.170784 9.7426817,17.737087 11.426471,22 L 12.838235,22 C 12.047065,18.124596 5.7273049,11.713663 4,11.713663 z" />
  <path
     style="opacity:0.15;fill:#000000;fill-opacity:1;fill-rule:evenodd;stroke:none"
     id="path6713"
     d="M 16.938974,2.9534884 C 14.188865,4.9264327 8.5705498,8.3323148 4,7.789725 L 4,12.176752 C 4,12.176751 16.307693,14.477039 20,9.6188921 L 20,5.763136 C 19.362464,4.8674813 17.949146,3.7479676 16.938974,2.9534884 z M 20,14.133829 C 18.53148,15.819909 16.728987,19.151025 15.464818,22 L 13.882353,21.98608 C 15.359019,17.980407 17.746801,14.045734 20,11.255817 L 20,14.133832 L 20,14.133829 z" />
  <path
     style="opacity:0.4;fill:none;stroke:url(#linearGradient2435);stroke-width:0.99999987999999995;stroke-linecap:butt;stroke-linejoin:miter;stroke-miterlimit:4;stroke-dasharray:none;stroke-dashoffset:0;stroke-opacity:1;display:inline"
     id="path2435"
     d="M 19.500001,5.6770357 C 19.500001,10.885341 19.500001,16.291693 19.500001,21.5 C 14.500001,21.5 9.5000012,21.5 4.5,21.5 C 4.5,14.83333 4.5,8.1666657 4.5,1.4999999 C 7.9372614,1.4999999 11.456499,1.4999999 14.893761,1.4999999" />
  <path
     style="opacity:0.2;fill:#000000;fill-opacity:1;fill-rule:evenodd;stroke:none;display:inline"
     id="path3370"
     d="M 14.075474,1 C 15.231777,1.3287671 14.414533,5.6143789 14.414533,5.6143789 C 14.414533,5.6143789 18.929921,5.1866427 20.022243,6.809375 C 21.511396,9.0216317 19.954018,6.1742029 19.848796,5.9876778 C 19.092868,4.6476323 15.982456,1.4405918 14.803387,1.0464703 C 14.715155,1.0169778 14.519511,1 14.075474,1 z" />
  <path
     style="fill:url(#linearGradient2431);fill-opacity:1;fill-rule:evenodd;stroke:none;display:inline"
     id="path4474"
     d="M 14,1 C 15.526166,1 15,5 15,5 C 15,5 19.992074,4.54674 19.992074,7 C 19.992074,6.4022581 20.047824,5.5215662 19.928004,5.3440674 C 19.088897,4.1010616 16.184239,1.4821803 15.129935,1.0464703 C 15.043957,1.0109384 14.444037,1 14,1 z" />
  <path
     style="fill:none;fill-opacity:1;stroke:url(#linearGradient2428);stroke-width:0.99992168;stroke-linecap:butt;stroke-linejoin:round;stroke-miterlimit:4;stroke-dasharray:none;stroke-dashoffset:0;stroke-opacity:1;display:inline"
     id="path4238"
     d="M 15.004136,0.4995602 C 15.729494,0.74310014 19.482457,3.5450086 20.500039,5.4661223 C 20.500039,11.346001 20.500039,5.8033491 20.500039,11.683227 C -0.35223341,19.75359 2.4778444,0.4995602 15.004136,0.4995602 z" />
</svg>
